X:13788
T:Queen of The May. HSJJ.091
M:6/8
L:1/8
Q:110
S:HSJ Jackson,Wyresdale,Lancs.1823
R:Jig
O:England
A:Lancashire
N:Chain figure six round, lead down the middle, up again, lead through
N:..    ...couple and set contrary corners.
H:1823
Z:vmp.Chris Partington.
K:G
B/c/|d>ed dge|d>ed dba|gfe dcB|cBcA2B/c/|d>ed dge|d>ed dba|!
gfe def|g2bg2||F/G/|A>BA Add|BGG gfe|dcB gdB|BAAA2F/G/|!
ABA Add|BGG gfe|fga ge^c|ded def|gab agf|gfe dcB|!
AcB cde|G3F2g/a/|bag agf|gfe dcB|B-G.c e-d.F|A3G2|]
